!!!COM: Palestrina, Giovanni Perluigi da
!!!OPR: Ad coenam Agni
!!!OTL: Gloria
**kern	**kern	**kern	**kern	**kern
*Ibass	*Itenor	*Icalto	*Icalto	*Icant
!Bassus	!Tenor	!Altus 2	!Altus 1	!Cantus
*clefF4	*clefGv2	*clefG2	*clefG2	*clefG2
*k[]	*k[]	*k[]	*k[]	*k[]
*G:mix	*G:mix	*G:mix	*G:mix	*G:mix
*M4/2	*M4/2	*M4/2	*M4/2	*M4/2
=1	=1	=1	=1	=1
1.C	1.G	0r	1r	0r
.	.	.	[1c	.
2C	2G	.	.	.
=2	=2	=2	=2	=2
2F	2A	0r	2c]	0r
2E	2G	.	2c	.
2.F	1A	.	2d	.
.	.	.	2c	.
4E	.	.	.	.
=3	=3	=3	=3	=3
2D	2B	0r	2d	0r
2C	1c	.	2e	.
2D	.	.	2f	.
2D	2B	.	2d	.
=4	=4	=4	=4	=4
0C	2.c	1.G	1e	1r
.	4d	.	.	.
.	4e	.	1r	[1g
.	4f	.	.	.
.	[2e	2G	.	.
=5	=5	=5	=5	=5
1r	2e]	2c	0r	2g]
.	2d	2B	.	2g
2r	1e	2.c	.	2a
[2c	.	.	.	2g
.	.	4d	.	.
=6	=6	=6	=6	=6
2c]	0r	2e	2r	2a
2B	.	2d	1g	2b
2A	.	2e	.	2cc
2A	.	2c	2f	2a
=7	=7	=7	=7	=7
1G	2r	1g	2e	1b
.	1g	.	1d	.
1A	.	1r	.	1r
.	2f	.	[2c	.
=8	=8	=8	=8	=8
2G	2e	2r	2c]	0r
2G	1d	1g	2B	.
2A	.	.	1c	.
2A	[2c	2f#	.	.
=9	=9	=9	=9	=9
1G	2c]	2g	1d	2r
.	2B	2g	.	1dd
1r	1A	2.a	2e	.
.	.	.	2e	2cc
.	.	4g	.	.
=10	=10	=10	=10	=10
1D	1r	4f	1d	2b
.	.	4e	.	.
.	.	2f	.	1a
2E	1G	2e	1r	.
2E	.	2c	.	[2g
=11	=11	=11	=11	=11
1D	2A	[0d	0r	2g]
.	2A	.	.	2f#
2r	1G	.	.	1g
[2G	.	.	.	.
=12	=12	=12	=12	=12
2G]	2r	1d]	1r	1a
2F#	1d	.	.	.
2G	.	2r	2r	2b
2G	2d	2G	[2g	2b
=13	=13	=13	=13	=13
1D	2.d	2A	2g]	1a
.	.	2A	2f#	.
.	4c	.	.	.
1E	1B	1G	2g	1r
.	.	.	2g	.
=14	=14	=14	=14	=14
2C	1c	1r	1e	0r
1c	.	.	.	.
.	1G	2r	1d	.
2B	.	[2g	.	.
=15	=15	=15	=15	=15
2c	1r	2g]	2e	1r
2A	.	2f#	4d	.
.	.	.	4c	.
1G	2r	2g	2e	2r
.	2g	2g	2d	[2dd
=16	=16	=16	=16	=16
0r	1g	1e	2r	2dd]
.	.	.	1g	2cc#
.	2a	1d	.	2dd
.	2a	.	2f#	2dd
=17	=17	=17	=17	=17
2r	1g	1G	2g	1b
1G	.	.	2g	.
.	2r	1r	1d	1a
2F#	2d	.	.	.
=18	=18	=18	=18	=18
2G	2d	1r	2r	2b
2E	2c#	.	2g	4a
.	.	.	.	4g
1D	1d	2r	2g	2b
.	.	[2d	2f#	2a
=19	=19	=19	=19	=19
0r	1G	2d]	1g	2r
.	.	2d	.	1dd
.	1A	2.a	1e	.
.	.	.	.	2cc#
.	.	4g	.	.
=20	=20	=20	=20	=20
2r	1r	4f	1d	2dd
.	.	4e	.	.
2d	.	1f	.	2dd
2d	2r	.	2r	1a
2c#	2a	2e	2e	.
=21	=21	=21	=21	=21
2d	2a	1d	2f	2r
2B-	2g	.	2d	2dd
1A	2a	2r	1e	2dd
.	2a	2a	.	2cc#
=22	=22	=22	=22	=22
0r	1d	2a	2f	1dd
.	.	2f	2.a	.
.	1r	2g	.	1b
.	.	.	4g	.
.	.	2g	[2g	.
=23	=23	=23	=23	=23
1r	2r	1d	2g]	1a
.	1d	.	2f#	.
1G	.	1r	1g	2r
.	2e	.	.	2b
=24	=24	=24	=24	=24
2A	2c	1r	0r	2cc
2F	2.d	.	.	2a
1G	.	1d	.	1b
.	4G	.	.	.
.	[2g	.	.	.
=25	=25	=25	=25	=25
2C	4g]	2e	0r	2cc
.	4f	.	.	.
1c	4e	2c	.	2.ee
.	4d	.	.	.
.	2c	2g	.	.
.	.	.	.	4dd
2B-	2d	2g	.	[2dd
=26	=26	=26	=26	=26
1A	1e	1a	2r	2dd]
.	.	.	2.a	2cc#
2r	1d	2.f	.	1dd
.	.	.	4a	.
[2D	.	.	2a	.
.	.	4e	.	.
=27	=27	=27	=27	=27
4D]	2r	1d	2f	0r
4D	.	.	.	.
2D	2.d	.	2f	.
2G	.	2r	2g	.
.	4d	.	.	.
2F#	2d	[2d	[2a	.
=28	=28	=28	=28	=28
2G	2B	4d]	4a]	0r
.	.	4d	4g	.
2C	2c	2e	1g	.
1D	1A	2d	.	.
.	.	2d	2f#	.
=29	=29	=29	=29	=29
1C	1c	2.e	1g	2r
.	.	.	.	2.ee
.	.	4f	.	.
2r	2.c	1g	1r	.
.	.	.	.	4ee
[2c	.	.	.	2ee
.	4d	.	.	.
=30	=30	=30	=30	=30
4c]	1e	2r	0r	2cc
4c	.	.	.	.
2c	.	2.g	.	2cc
2B	1r	.	.	2dd
.	.	4g	.	.
2c	.	2g	.	[2ee
=31	=31	=31	=31	=31
2d	0r	2f	1d	4ee]
.	.	.	.	4dd
2B-	.	2g	.	1dd
1A	.	[1a	1e	.
.	.	.	.	2cc#
=32	=32	=32	=32	=32
1D	2r	1a]	1f	1dd
.	2A	.	.	.
1G	1B	2.g	2d	1r
.	.	.	[2g	.
.	.	4f	.	.
=33	=33	=33	=33	=33
1C	1c	1e	2g]	0r
.	.	.	2e	.
1D	1A	1d	[1f	.
=34	=34	=34	=34	=34
1D	1.d	0r	1f]	1a
1G	.	.	1g	1b
.	2d	.	.	.
=35	=35	=35	=35	=35
2A	4c	2r	1e	1cc
.	4d	.	.	.
2A	4e	2e	.	.
.	4c	.	.	.
1D	1d	1f#	1r	2a
.	.	.	.	[2dd
=36	=36	=36	=36	=36
1G	2B	1g	0r	2dd]
.	2d	.	.	2b
2C	4c	2e	.	[1cc
.	4B	.	.	.
[2F	4A	2a	.	.
.	4G	.	.	.
=37	=37	=37	=37	=37
2F]	2F	2a	0r	1cc]
2E	2G	2.g	.	.
1D	1A	.	.	1dd
.	.	8f	.	.
.	.	8e	.	.
.	.	2f#	.	.
=38	=38	=38	=38	=38
1r	1G	1g	2r	1b
.	.	.	2.d	.
2.G	2.B	1g	.	1r
.	.	.	4d	.
.	.	.	2d	.
4G	4B	.	.	.
=39	=39	=39	=39	=39
2G	2B	0r	1e	0r
1A	1c	.	.	.
.	.	.	2f	.
2B	2d	.	[2g	.
=40	=40	=40	=40	=40
2c	2e	2r	2g]	0r
2c	2A	2.c	2e	.
2.F	2.a	.	[1f	.
.	.	4c	.	.
.	.	2c	.	.
4E	4g	.	.	.
=41	=41	=41	=41	=41
1D	4f	2d	1f]	2r
.	4e	.	.	.
.	1d	2d	.	2.a
1A	.	2.e	1e	.
.	.	.	.	4a
.	2c#	.	.	2a
.	.	4f#	.	.
=42	=42	=42	=42	=42
1G	2d	1g	0r	1b
.	1e	.	.	.
2r	.	1g	.	2cc
[2G	4d	.	.	[2dd
.	4c	.	.	.
=43	=43	=43	=43	=43
2G]	1B	2r	1d	2dd]
2G	.	1g	.	2b
1c	1r	.	1e	[1cc
.	.	2g	.	.
=44	=44	=44	=44	=44
1F	2r	1a	1f	1cc]
.	2A	.	.	.
1G	1B	2g	1d	1b
.	.	[2g	.	.
=45	=45	=45	=45	=45
2E	4c	2g]	1c	0r
.	4B	.	.	.
2F	4A	2.f	.	.
.	4G	.	.	.
1D	2.F	.	2d	.
.	.	4e	.	.
.	.	[2d	2f	.
.	4G	.	.	.
=46	=46	=46	=46	=46
1r	1A	2d]	2.e	1a
.	.	2c#	.	.
.	.	.	4f	.
1G	1G	1d	1g	1b
=47	=47	=47	=47	=47
1A	2r	0r	2f	1cc
.	1c	.	1e	.
1F	.	.	.	1a
.	2A	.	2d	.
=48	=48	=48	=48	=48
2E	2c	1r	1e	1g
2E	2B	.	.	.
2A	4c	2r	1r	2a
.	4d	.	.	.
2A	4e	2c	.	2cc
.	4f	.	.	.
=49	=49	=49	=49	=49
1G	2.g	2d	0r	2.b
.	.	2e	.	.
.	8f	.	.	4cc
.	8e	.	.	.
2r	1d	2f	.	1dd
2G	.	2g	.	.
=50	=50	=50	=50	=50
2A	0r	2e	2r	2cc
2B	.	1g	2d	1b
2c	.	.	2e	.
2d	.	4f	2f	2a
.	.	4e	.	.
=51	=51	=51	=51	=51
2G	0r	2d	1g	1b
2G	.	2d	.	.
2A	.	1c	2e	1r
4F	.	.	[2f	.
4G	.	.	.	.
=52	=52	=52	=52	=52
4A	1r	1c	2f]	0r
4B	.	.	.	.
1c	.	.	2e	.
.	2r	1G	2d	.
2B	2d	.	2d	.
=53	=53	=53	=53	=53
1A	2e	0r	1c	2r
.	2f#	.	.	2a
2G	2g	.	1r	2b
2A	2e	.	.	2cc#
=54	=54	=54	=54	=54
1D	2f#	0r	2r	1dd
.	2f#	.	2d	.
1r	1g	.	2e	2b
.	.	.	4c	[2cc
.	.	.	4d	.
=55	=55	=55	=55	=55
1r	1c	1r	4e	2cc]
.	.	.	4f	.
.	.	.	1g	2b
1D	1d	2r	.	2a
.	.	2d	2f#	2a
=56	=56	=56	=56	=56
2E	1r	2B	1g	1g
4C	.	1c	.	.
4D	.	.	.	.
4E	1g	.	1r	1r
4F#	.	.	.	.
[2G	.	2B	.	.
=57	=57	=57	=57	=57
2G]	1a	1A	0r	2r
2F#	.	.	.	2a
[1G	2.d	2G	.	2b
.	.	[2g	.	4g
.	4c	.	.	4a
=58	=58	=58	=58	=58
2G]	4d	2g]	1d	4b
.	4e	.	.	4cc
2D	2f	2a	.	1dd
1A	1e	1a	2e	.
.	.	.	2e	2cc#
=59	=59	=59	=59	=59
2D	1d	1a	1f	1dd
1d	.	.	.	.
.	1A	2r	1e	1r
2c	.	[2a	.	.
=60	=60	=60	=60	=60
1B-	2r	2a]	1d	0r
.	1d	2g	.	.
1A	.	2.a	1e	.
.	2c#	.	.	.
.	.	4g	.	.
=61	=61	=61	=61	=61
1D	1d	2f	0d	1a
.	.	2.a	.	.
1r	1G	.	.	2b
.	.	4g	.	.
.	.	[2g	.	2b
=62	=62	=62	=62	=62
1r	1A	2g]	1c	1cc
.	.	2f#	.	.
2r	1G	1g	1r	1b
[2G	.	.	.	.
=63	=63	=63	=63	=63
2G]	1r	1d	0r	1a
2F#	.	.	.	.
1G	2r	2.d	.	1b
.	[2d	.	.	.
.	.	4e	.	.
=64	=64	=64	=64	=64
1A	2d]	2f	0r	0a
.	2c#	2e	.	.
2D	1d	1f	.	.
2d	.	.	.	.
=65	=65	=65	=65	=65
2B	2G	2d	2r	1g
2c	1g	2e	2g	.
1A	.	2r	2a	1r
.	2f#	2c	2a	.
=66	=66	=66	=66	=66
1G	2.g	2d	2.b-	0r
.	.	2d	.	.
.	4f	.	4a	.
[1c	4e	2.e	2g	.
.	4d	.	.	.
.	4c	.	[2a	.
.	4B	4d	.	.
=67	=67	=67	=67	=67
2c]	2A	2c	4a]	0r
.	.	.	4g	.
2B	2B	2.d	1g	.
1A	1c	.	.	.
.	.	4c	.	.
.	.	[2c	2f#	.
=68	=68	=68	=68	=68
1G	1d	2c]	1g	2r
.	.	2B	.	2dd
1C	2c	[1c	1r	2ee
.	2G	.	.	2ee
=69	=69	=69	=69	=69
1F	2A	1c]	0r	2.ff
.	2A	.	.	.
.	.	.	.	4ee
[1G	[1B-	1r	.	2dd
.	.	.	.	[2ee
=70	=70	=70	=70	=70
2G]	2B-]	1r	1d	4ee]
.	.	.	.	4dd
2F	2A	.	.	1dd
1E	1G	1g	2e	.
.	.	.	2e	2cc#
=71	=71	=71	=71	=71
1D	2r	2a	2.f	1dd
.	1d	2a	.	.
.	.	.	4e	.
1G	.	2.b	2d	1r
.	2B	.	[2e	.
.	.	4a	.	.
=72	=72	=72	=72	=72
2E	2.c	2g	4e]	0r
.	.	.	4d	.
2F	.	2.a	1c	.
.	4d	.	.	.
1G	2e	.	.	.
.	.	4g	.	.
.	2d	[2g	2B	.
=73	=73	=73	=73	=73
1A	2c	2g]	1c	1a
.	2A	2f#	.	.
1G	1d	2g	2r	2b
.	.	[2g	2d	2b
=74	=74	=74	=74	=74
2r	1.c	2g]	2e	2.cc
2A	.	2c	2e	.
.	.	.	.	4b
2F	.	1d	4f	2a
.	.	.	4e	.
[2G	4B	.	4d	[2b
.	4A	.	4c	.
=75	=75	=75	=75	=75
4G]	1B	4G	0d	4b]
4F#	.	4A	.	4a
2G	.	4B	.	1g
.	.	4c	.	.
1D	1A	1d	.	.
.	.	.	.	2f#
=76	=76	=76	=76	=76
0G	0G	0B	0d	0g
=77	=77	=77	=77	=77
0r	0r	1G	0r	0r
.	.	1d	.	.
=78	=78	=78	=78	=78
0r	1G	2G	0r	1g
.	.	2g	.	.
.	1d	2g	.	1a
.	.	2f#	.	.
=79	=79	=79	=79	=79
0r	2G	4g	0r	2g
.	.	4f	.	.
.	2g	4e	.	2g
.	.	4d	.	.
.	2g	2c	.	1a
.	2f#	2d	.	.
=80	=80	=80	=80	=80
0r	4g	2G	0r	1b
.	4f	.	.	.
.	4e	2g	.	.
.	4d	.	.	.
.	2.c	2a	.	[1cc
.	.	[2g	.	.
.	4B	.	.	.
=81	=81	=81	=81	=81
1r	1A	2g]	1c	2cc]
.	.	2f#	.	2a
2r	1G	1g	1d	1b
2G	.	.	.	.
=82	=82	=82	=82	=82
2A	0r	2.e	2c	0r
1c	.	.	2c	.
.	.	4f	.	.
.	.	1g	1d	.
2B	.	.	.	.
=83	=83	=83	=83	=83
2A	2r	2c	1e	0r
2G	2G	2B	.	.
2.F	2A	1c	[1f	.
.	[2c	.	.	.
4E	.	.	.	.
=84	=84	=84	=84	=84
1D	2c]	1d	2f]	1r
.	2B	.	2d	.
1C	2.c	2G	1e	[1g
.	.	4c	.	.
.	4B	4d	.	.
=85	=85	=85	=85	=85
1r	4c	4e	0r	1g]
.	4d	4f#	.	.
.	2e	1g	.	.
1D	1d	.	.	1a
.	.	2f#	.	.
=86	=86	=86	=86	=86
1G	2r	1g	0r	2g
.	2G	.	.	2g
2F	1c	2r	.	1a
2A	.	2e	.	.
=87	=87	=87	=87	=87
2G	2B	1g	1r	1b
2E	2e	.	.	.
[1A	[1e	2e	[1c	1cc
.	.	2c	.	.
=88	=88	=88	=88	=88
1A]	2e]	2e	1c]	1a
.	4d	2f#	.	.
.	4c	.	.	.
1G	2B	2.g	1d	1b
.	2G	.	.	.
.	.	4f	.	.
=89	=89	=89	=89	=89
1r	1A	4e	2c	1r
.	.	4d	.	.
.	.	2.e	2c	.
1D	1A	.	1d	2r
.	.	4d	.	.
.	.	[2d	.	[2a
=90	=90	=90	=90	=90
2.A	2r	2d]	1e	2a]
.	1A	2c#	.	2a
4A	.	.	.	.
1D	.	1d	1f	1a
.	[2d	.	.	.
=91	=91	=91	=91	=91
1G	4d]	2r	1d	1b
.	4d	.	.	.
.	1G	2.g	.	.
1C	.	.	1e	1cc
.	.	4g	.	.
.	[2c	2g	.	.
=92	=92	=92	=92	=92
2F	2c]	2f	1r	1a
2F	2A	2f	.	.
1G	2B	2.d	2r	1g
.	2G	.	[2d	.
.	.	4e	.	.
=93	=93	=93	=93	=93
1D	2.d	4f	2d]	1a
.	.	4g	.	.
.	.	1a	2d	.
.	4c	.	.	.
1r	1B	.	1d	1b
.	.	2g	.	.
=94	=94	=94	=94	=94
1A	0A	1a	1e	1.cc
1F	.	1a	1f	.
.	.	.	.	4b
.	.	.	.	4a
=95	=95	=95	=95	=95
2G	0r	2.g	1d	4b
.	.	.	.	4cc
2G	.	.	.	4dd
.	.	4f	.	4b
2A	.	2e	1c	4cc
.	.	.	.	4dd
2A	.	[2a	.	[2ee
=96	=96	=96	=96	=96
1B-	0r	2a]	1d	4ee]
.	.	.	.	4dd
.	.	2g	.	1dd
1A	.	[1a	1e	.
.	.	.	.	2cc#
=97	=97	=97	=97	=97
0D	1d	0a]	1.f	0dd
.	1d	.	.	.
.	.	.	4e	.
.	.	.	4d	.
=98	=98	=98	=98	=98
0r	2c	2.cc	4e	0r
.	.	.	4f	.
.	2c	.	4g	.
.	.	4b	4e	.
.	2d	2a	4f	.
.	.	.	4g	.
.	2d	2f	[2a	.
=99	=99	=99	=99	=99
1r	1e	1g	4a]	0r
.	.	.	4g	.
.	.	.	1g	.
1D	2.d	1a	.	.
.	.	.	2f#	.
.	4c	.	.	.
=100	=100	=100	=100	=100
1G	1B	1g	0g	2r
.	.	.	.	2dd
2C	1c	2r	.	2ee
2C	.	2g	.	2ee
=101	=101	=101	=101	=101
2.F	2r	1a	0r	1ff
.	2A	.	.	.
4G	.	.	.	.
4A	1c	2a	.	2.ee
4B	.	.	.	.
[2c	.	2e	.	.
.	.	.	.	4ee
=102	=102	=102	=102	=102
2c]	2G	2.g	0r	1dd
2B	2G	.	.	.
.	.	4f	.	.
[1c	2.g	2e	.	1ee
.	.	2c	.	.
.	4g	.	.	.
=103	=103	=103	=103	=103
2c]	1g	2d	2r	1dd
2B	.	1g	2g	.
1A	1c	.	2a	1r
.	.	2f#	2a	.
=104	=104	=104	=104	=104
1G	2d	2g	1b-	0r
.	1g	2.d	.	.
1D	.	.	2.a	.
.	.	4c	.	.
.	2f	4A	.	.
.	.	4B	4a	.
=105	=105	=105	=105	=105
2r	2e	2c	1g	1r
1G	2.d	2B	.	.
.	.	1A	1a	1dd
.	4c	.	.	.
2F	2A	.	.	.
=106	=106	=106	=106	=106
1E	2B	1r	1g	1ee
.	2c#	.	.	.
2D	1d	[1a	1r	1ff
[2d	.	.	.	.
=107	=107	=107	=107	=107
2d]	1A	2a]	0r	1ee
2c	.	2a	.	.
2B	2d	2b	.	2dd
2A	2c	2cc	.	[2ee
=108	=108	=108	=108	=108
2G	1d	2b	1r	4ee]
.	.	.	.	4dd
2F	.	2.a	.	1dd
1E	1G	.	1g	.
.	.	4g	.	.
.	.	[2g	.	2cc#
=109	=109	=109	=109	=109
1D	1r	2g]	1a	0dd
.	.	2f#	.	.
1r	2r	1g	1b-	.
.	[2g	.	.	.
=110	=110	=110	=110	=110
0r	2g]	1d	1a	0r
.	2f	.	.	.
.	2e	2r	2g	.
.	2d	2f	[2a	.
=111	=111	=111	=111	=111
1r	2c	2e	4a]	0r
.	.	.	4g	.
.	2B	2d	1g	.
2r	1A	1c	.	.
[2c	.	.	2f#	.
=112	=112	=112	=112	=112
2c]	1G	1d	0g	1r
2B	.	.	.	.
2c	2r	1e	.	[1g
2C	[2c	.	.	.
=113	=113	=113	=113	=113
2G	2c]	1d	0r	2g]
2G	2B	.	.	2g
4F	2.c	1r	.	1a
4G	.	.	.	.
4A	.	.	.	.
4B	4d	.	.	.
=114	=114	=114	=114	=114
2.c	2e	2r	0r	1g
.	2e	1g	.	.
4B	.	.	.	.
1A	1c	.	.	1a
.	.	2f#	.	.
=115	=115	=115	=115	=115
1G	2d	2g	1r	1b
.	2.e	2g	.	.
[1A	.	2e	[1c	1cc
.	4c	.	.	.
.	[2e	2c	.	.
=116	=116	=116	=116	=116
1A]	2e]	2e	2c]	1a
.	4d	2f#	2c	.
.	4c	.	.	.
1G	4B	1g	1d	1b
.	4A	.	.	.
.	2B	.	.	.
=117	=117	=117	=117	=117
2r	1A	0r	1c	2r
2A	.	.	.	2cc
2G	1r	.	1d	2b
2F	.	.	.	2a
=118	=118	=118	=118	=118
2E	2r	1r	1e	4g
.	.	.	.	4a
2E	2G	.	.	4b
.	.	.	.	4cc
1D	2A	2r	1f	4dd
.	.	.	.	4ee
.	2F	2a	.	[2ff
=119	=119	=119	=119	=119
1r	2B-	2f	1d	4ff]
.	.	.	.	4ee
.	2B-	2g	.	1dd
2r	1A	2a	1e	.
2A	.	2a	.	2cc#
=120	=120	=120	=120	=120
1d	2r	1a	2r	1dd
.	2d	.	2f	.
2c	1g	1r	2e	1r
2B-	.	.	2d	.
=121	=121	=121	=121	=121
2A	2f	0r	4c	0r
.	.	.	4d	.
2A	1e	.	4e	.
.	.	.	4f	.
[1G	.	.	4g	.
.	.	.	4a	.
.	[2d	.	[2b-	.
=122	=122	=122	=122	=122
1G]	4d]	0d	4b-]	1r
.	4c	.	4a	.
.	2B-	.	1g	.
1D	2A	.	.	[1dd
.	2A	.	2f#	.
=123	=123	=123	=123	=123
1.G	1G	2.B	1g	1dd]
.	.	4c	.	.
.	1g	2d	1r	1b
2E	.	[2e	.	.
=124	=124	=124	=124	=124
0A	1e	2e]	0r	0cc
.	.	4d	.	.
.	.	4c	.	.
.	1c	2e	.	.
.	.	2f#	.	.
=125	=125	=125	=125	=125
0G	2d	1g	1r	0b
.	1d	.	.	.
.	.	1d	[1g	.
.	[2B	.	.	.
=126	=126	=126	=126	=126
1E	2B]	2.e	1g]	0r
.	2.e	.	.	.
.	.	4f	.	.
1C	.	1g	1e	.
.	4d	.	.	.
.	4c	.	.	.
.	4B	.	.	.
=127	=127	=127	=127	=127
2.F	4A	1c	0f	0r
.	4B	.	.	.
.	1c	.	.	.
4E	.	.	.	.
1D	.	1d	.	.
.	2B	.	.	.
=128	=128	=128	=128	=128
0C	1c	1G	0e	1g
.	2r	2r	.	2a
.	2G	2c	.	2g
=129	=129	=129	=129	=129
0r	2c	2e	0r	2a
.	2B	2d	.	2b
.	2A	2e	.	1cc
.	2A	2f#	.	.
=130	=130	=130	=130	=130
2r	1G	1g	0r	2r
2G	.	.	.	2dd
2c	1r	1g	.	2ee
2B	.	.	.	2dd
=131	=131	=131	=131	=131
2A	1r	1cc	1c	2ee
2A	.	.	.	2ff#
2G	2r	2b	2d	1gg
2C	2G	2e	2c	.
=132	=132	=132	=132	=132
2F	2A	2f	2d	0r
2E	2G	2c	2e	.
2D	2A	2d	1f	.
2D	2B	2d	.	.
=133	=133	=133	=133	=133
1C	2.c	4e	2r	0r
.	.	4d	.	.
.	.	4c	2g	.
.	4d	4B	.	.
2r	1e	4A	2a	.
.	.	4B	.	.
2C	.	[2c	2g	.
=134	=134	=134	=134	=134
2F	1d	2c]	2a	1dd
2G	.	4B	2b	.
.	.	4A	.	.
2C	1c	2G	1cc	2.ee
2E	.	2g	.	.
.	.	.	.	4ee
=135	=135	=135	=135	=135
1D	2r	2a	0r	1ff
.	2d	2f	.	.
2C	2e	[1g	.	1ee
[2c	2c	.	.	.
=136	=136	=136	=136	=136
2c]	1d	0g]	0r	1dd
2B	.	.	.	.
2c	2r	.	.	1ee
2c	[2c	.	.	.
=137	=137	=137	=137	=137
1G	2c]	2r	1g	1ff
.	2B	2d	.	.
1r	1A	2e	2.a	1r
.	.	2c	.	.
.	.	.	4a	.
=138	=138	=138	=138	=138
2r	1G	2d	1b-	0r
2G	.	2g	.	.
2A	2r	2e	1a	.
2F	[2d	2f	.	.
=139	=139	=139	=139	=139
1G	2d]	2d	1g	1r
.	2e	1g	.	.
1r	2c	.	1a	2r
.	[2d	2f#	.	2a
=140	=140	=140	=140	=140
1G	2d]	1g	1g	2.b
.	2g	.	.	.
.	.	.	.	4b
2A	2e	1c	1r	1cc
2F	2f	.	.	.
=141	=141	=141	=141	=141
1G	2d	2r	0r	1b
.	2G	2g	.	.
1r	2A	2e	.	1a
.	2F	2f	.	.
=142	=142	=142	=142	=142
2r	1G	2d	1r	1b
1G	.	1e	.	.
.	1r	.	2r	1a
2F	.	[2d	2d	.
=143	=143	=143	=143	=143
1E	2r	2d]	2.e	1r
.	2G	1c	.	.
.	.	.	4e	.
1D	2A	.	1f	1dd
.	2F	2B	.	.
=144	=144	=144	=144	=144
1C	2G	1c	1e	2ee
.	1c	.	.	2cc
1G	.	2r	1d	2dd
.	2B	2g	.	[2dd
=145	=145	=145	=145	=145
1r	1A	2a	1e	2dd]
.	.	2e	.	2cc
1G	2B	2.g	1d	2b
.	[2d	.	.	2b
.	.	4f	.	.
=146	=146	=146	=146	=146
2A	4d]	2e	1r	1a
.	4c	.	.	.
2F	2c	2f	.	.
1G	1B	1d	1g	4g
.	.	.	.	4a
.	.	.	.	4b
.	.	.	.	4cc
=147	=147	=147	=147	=147
2D	2A	2r	2a	1dd
2F	2A	2d	2f	.
1E	2B	2e	2g	1r
.	2G	2c	[2g	.
=148	=148	=148	=148	=148
1D	1A	1d	2g]	2r
.	.	.	2f	2dd
1C	2c	1g	2e	2ee
.	2c	.	2e	2cc
=149	=149	=149	=149	=149
1.G	2B	1g	1d	2.dd
.	4G	.	.	.
.	4A	.	.	4cc
.	4B	2G	[1d	2b
.	4c	.	.	.
2F#	[2d	2A	.	[2a
=150	=150	=150	=150	=150
1G	4d]	2.B	0d_	4a]
.	4c	.	.	4g
.	2B	.	.	1g
.	.	4c	.	.
1D	1A	1d	.	.
.	.	.	.	2f#
=151	=151	=151	=151	=151
[0G	[0G	[0B	0d_	[0g
=152	=152	=152	=152	=152
0G]	0G]	0B]	1d]	0g]
.	.	.	1d	.
==	==	==	==	==
*-	*-	*-	*-	*-
!!!CDT: 1525/^1526/-1594/2/2
!!!OCY: Italia
!!!AGN: Mass (Canonic)
!!!AST: renaissance, vocal
!!!ASW: Hymn
!!!PWK: Masses, Book I
!!!RNB: Cadence finals: C
!!!YOR: Le Opere Complete, v. 1, p. 125
!!!YOO: Rome, Italy: Fratelli Scalera
!!!END: 1992//
!!!EED: John Miller
!!!YEC: Copyright 2000, John Miller
!!!YEN: United States of America
!!!YEM: Rights to all derivative electronic formats reserved.
!!!YEM: Refer to licensing agreement for further details.
!!!YEM: This file must be accompanied by the licensing agreement.
!!!YEM: A copy of the licensing agreement may be found at http://www.music-cog.ohio-state.edu/HumdrumDatabases/Palestrina/license.txt
!!!EMD: converted to Humdrum by Bret Aarden
